X: 12062
T: Hamilton House
C: James Oswald
%R: air, strathspey
B: James Oswald "The Caledonian Pocket Companion" v.1 b.1 p.6 #2
Z: 2020 John Chambers <jc:trillian.mit.edu>
M: C
L: 1/8
K: G
|:\
d2 (b<d) TB2 (AG) | e2 (a<e) {g}f2 {e}d2 | e2 g<e (f<d)(g<d) | (cB)(AG) {G2}A4 |\
A2 (dc) {c}B2 (AG) | B2 (ed) T^c2 (BA) |
(d<f)(e<g) (f<^c)(d<g) | f2 Te2 d4 ::\
d2 a<g {g}f2 {e}d2 | (dfa)=c {c}TB2 (AG) | (BG)(dB) (ed)(gd) |
(cB)(AG) A4 |\
(B<G) (d<B) {cd}e3 d | e2 ag {g}f2 ed | (e<g)(f<a) (g<d)(e<c) | B2 TA2 G4 :|


